assets/projectpropose/spotify.svg

<svg height="25" viewBox="0 0 83 25" width="83" xmlns="http://www.w3.org/2000/svg"><path d="m19.8096793 11.0815232c.5518709.3298783 1.2669395.1467287 1.5951193-.4088401.3280309-.5546732.146551-1.27219589-.4068061-1.60207422-4.6188895-2.75351372-11.92772176-3.01234133-16.32440628-1.67208005-.61548536.18777689-.96239261.84051801-.77600809 1.45848011.18638452.61766356.83679849.96634944 1.4518378.77902034 3.8300992-1.16741101 10.44808997-.94739263 14.46026337 1.44549392zm-.1313908 3.5441769c.2804687-.4576502.1368901-1.0577004-.3192615-1.3398135-3.8418413-2.3710937-9.46161897-3.0383137-13.98241141-1.6607358-.51218601.1567295-.80172129.7000585-.64699527 1.2154747.15576643.5143713.69782756.8049926 1.21105398.649308 3.95732837-1.2063695 9.0579343-.6082598 12.4028986 1.4566889.4561516.2815161 1.0533553.1377727 1.3347156-.3209223zm-1.5230326 3.4037172c.2236914-.3671948.1085014-.8470857-.2572819-1.0714328-3.2807552-2.0133026-7.3479226-2.4818492-12.08928491-1.3932507-.41839924.0956796-.67909982.5134757-.58338082.9327645.09527322.4191395.51129418.6819973.92880161.5858699 4.33262432-.9939637 8.01156472-.588706 10.93456252 1.2053246.3653375.2244963.8430409.1089644 1.0665835-.2592755zm-5.7082138-18.0294173c6.874381 0 12.4468937 5.59628864 12.4468937 12.4998507 0 6.9040099-5.5725127 12.5001493-12.4468937 12.5001493-6.87423221 0-12.4470421-5.5961394-12.4470421-12.5001493 0-6.90356206 5.57280989-12.4998507 12.4470421-12.4998507zm21.4168378 11.5396212c2.6183022.6394565 3.6860748 1.6320767 3.6860748 3.4268536 0 2.1236103-1.615779 3.4958146-4.1162161 3.4958146-1.7675323 0-3.4053089-.630799-4.7372004-1.8247794-.0569262-.050452-.0631687-.1376234-.0138228-.1959865l1.1765711-1.406237c.0240784-.0291069.0587098-.0467203.0964622-.0498549.0359691-.0020897.0749107.0092545.1032994.0337342 1.1446155.9954563 2.1679471 1.4198202 3.422253 1.4198202 1.1294547 0 1.8312953-.4907874 1.8312953-1.2802563 0-.7125969-.3470558-1.1109884-2.4035288-1.5866998-2.4161626-.5864669-3.8143444-1.3462319-3.8143444-3.4919336 0-2.00091356 1.6208325-3.39938867 3.9412761-3.39938867 1.5781752 0 2.9283487.46974077 4.1273635 1.43594093.0581149.04686958.0698569.13105572.0267536.19225487l-1.0493422 1.48549729c-.0221462.0313459-.0552912.05194465-.092895.05761675-.0376041.00597067-.0758025-.00313457-.106272-.02597231-1.0075765-.75439141-1.9683341-1.12083995-2.9374152-1.12083995-.999699 0-1.6721105.48242838-1.6721105 1.1996525 0 .75886939.3827277 1.12009359 2.5317984 1.63476349zm11.1582536 2.4054249c0-1.4911694-.9509478-2.5730508-2.2605448-2.5730508-1.3158396 0-2.3084042 1.105764-2.3084042 2.5730508 0 1.4674361.9925646 2.5730509 2.3084042 2.5730509 1.331 0 2.2605448-1.057551 2.2605448-2.5730509zm-1.8150945-4.53396099c2.0138157 0 4.0524527 1.55729429 4.0524527 4.53396099 0 2.9760697-2.038637 4.5329161-4.0524527 4.5329161-1.0835276 0-1.9726446-.4036157-2.7058465-1.2299534v3.4677526c0 .0780663-.0630199.1416535-.1407543.1416535h-1.9241906c-.0777345 0-.140606-.0635872-.140606-.1416535v-10.98629148c0-.07806622.0628715-.14165362.140606-.14165362h1.9241906c.0777344 0 .1407543.0635874.1407543.14165362v.98873938c.7330533-.87843164 1.6220217-1.30712419 2.7058465-1.30712419zm9.2780584 7.12283419c1.3926822 0 2.4035289-1.0747167 2.4035289-2.5564824 0-1.4768398-1.0469643-2.5899179-2.4353362-2.5899179-1.3836157 0-2.3876251 1.0756122-2.3876251 2.5575271 0 1.475795 1.0399782 2.5888732 2.4194324 2.5888732zm0-7.12283419c2.5848599 0 4.6089311 1.99150969 4.6089311 4.53396099 0 2.5509595-2.0380427 4.5497834-4.6407384 4.5497834-2.5756447 0-4.5934735-1.9844943-4.5934735-4.5173926 0-2.560811 2.0318002-4.56635179 4.6252808-4.56635179zm10.1472585.17673119c.0777344 0 .1403085.0635874.1403085.14165362v1.66088508c0 .077917-.0625741.1415044-.1403085.1415044h-2.1175609v3.9948115c0 .6309482.2755639.9123151.8928329.9123151.4005633 0 .7589151-.0864252 1.1296033-.2737543.0429548-.0213451.0951247-.0200016.137039.0064185.0414683.0256738.0668843.0716478.0668843.1204578v1.5816247c0 .0504521-.0273483.0979186-.0711948.1225476-.5396829.3073391-1.1123621.4504854-1.8026093.4504854-1.6975268 0-2.5582548-.8805214-2.5582548-2.6172337v-4.2976726h-.9252346c-.0775859 0-.1401599-.0635874-.1401599-.1415044v-1.66088508c0-.07806622.062574-.14165362.1401599-.14165362h.9252346v-2.17421159c0-.07806623.0633172-.14150436.1412003-.14150436h1.9240418c.0777347 0 .1404573.06343813.1404573.14150436v2.17421159zm7.3776488.00850817h3.2872951c.0584124 0 .1108795.03612242.1313908.09105239l2.2477624 5.89049234 2.0521627-5.88661143c.0196193-.05672115.0734243-.0949333.1333228-.0949333h2.003263c.0466703 0 .0893276.02313625.1157843.0613484.026605.03880923.0315099.08791779.014863.13150354l-3.3384243 8.66341059c-.6924766 1.7882093-1.4778484 2.4530409-2.8987707 2.4530409-.7595098 0-1.3742519-.1580728-2.0551354-.5284024-.0651009-.0352268-.0915573-.1149348-.0604932-.182851l.6521974-1.4369859c.0156062-.0359732.0465217-.0632889.083234-.0764242.037158-.0114934.0777345-.0083588.1120684.0105978.3650404.2006139.7220546.3022641 1.0610843.3022641.4194397 0 .726662-.1385191 1.0390867-.834846l-2.7522197-6.6271209h-1.7966642v6.6289121c0 .0780663-.0633173.1415046-.1410518.1415046h-1.9241906c-.0775859 0-.1403085-.0634383-.1403085-.1415046v-6.6289121h-.9244914c-.0775859 0-.1412006-.0635874-.1412006-.1415044v-1.66939324c0-.07791697.0636147-.14150437.1412006-.14150437h.9244914v-.40898941c0-1.90060662.9393543-2.90576527 2.716845-2.90576527.7303779 0 1.2181883.11702471 1.5994295.23076556.0596014.01835976.0994349.07358825.0994349.13568298v1.62849434c0 .04537691-.0209571.08821632-.0581152.11493497-.0361176.02671864-.0824908.03373417-.1269317.01970314-.3608787-.12090561-.6831129-.20091232-1.0842708-.20091232-.6727085 0-.9726482.3503278-.9726482 1.13591585zm-4.2770357-.00850817c.0775859 0 .1409032.0635874.1409032.14165362v8.43130158c0 .0780663-.0633173.1415046-.1409032.1415046h-1.9243392c-.0777345 0-.1409031-.0634383-.1409031-.1415046v-8.43130158c0-.07806622.0631686-.14165362.1409031-.14165362zm-.9524342-3.8389776c.7620366 0 1.3800486.61990258 1.3800486 1.38548893 0 .76588492-.618012 1.38638455-1.3800486 1.38638455-.762185 0-1.3809402-.62049963-1.3809402-1.38638455 0-.76558635.6187552-1.38548893 1.3809402-1.38548893zm16.9369192 4.6777044h-.3525553v.4515303h.3525553c.1759804 0 .2810631-.0864252.2810631-.225989 0-.146878-.1050827-.2255413-.2810631-.2255413zm.2285961.6440837.3830248.5385525h-.3229774l-.3448264-.4939219h-.2963724v.4939219h-.2703618v-1.4274328h.6339159c.3301118 0 .5474118.1695665.5474118.455262 0 .2340494-.1346607.3770464-.3298145.4336183zm-.3002369-1.36399459c-.6936657 0-1.2186341.55377759-1.2186341 1.23189399 0 .6776686.5212526 1.2241322 1.2114998 1.2241322.6935173 0 1.2189315-.5534791 1.2189315-1.231894 0-.6778179-.5215498-1.22413219-1.2117972-1.22413219zm-.0071343 2.59200769c-.7615907 0-1.3541866-.6142305-1.3541866-1.3601137 0-.7460325.6003249-1.36712918 1.3613209-1.36712918.761442 0 1.3541868.61408118 1.3541868 1.35936738 0 .7458832-.5998791 1.3678755-1.3613211 1.3678755z" fill="#1ed760"/></svg>

<?xml version="1.0" encoding="UTF-8"?>
<svg width="83px" height="25px" viewBox="0 0 83 25" version="1.1" xmlns="http://www.w3.org/2000/svg" xmlns:xlink="http://www.w3.org/1999/xlink">
    <!-- Generator: Sketch 56.3 (81716) - https://sketch.com -->
    <title>spotify-podcast-badge-wht-grn-660x160</title>
    <desc>Created with Sketch.</desc>
    <g id="Page-1" stroke="none" stroke-width="1" fill="none" fill-rule="evenodd">
        <g id="Artboard-Copy-10" transform="translate(-328.000000, -535.000000)" fill="#1ED760" fill-rule="nonzero">
            <g id="Group-7" transform="translate(303.000000, 50.000000)">
                <g id="Group-4" transform="translate(25.000000, 348.000000)">
                    <g id="Group-6">
                        <g id="spotify-podcast-badge-wht-grn-660x160" transform="translate(0.000000, 137.000000)">
                            <path d="M19.8096793,11.0815232 C20.3615502,11.4114015 21.0766188,11.2282519 21.4047986,10.6726831 C21.7328295,10.1180099 21.5513496,9.40048721 20.9979925,9.07060888 C16.379103,6.31709516 9.07027074,6.05826755 4.67358622,7.39852883 C4.05810086,7.58630572 3.71119361,8.23904684 3.89757813,8.85700894 C4.08396265,9.4746725 4.73437662,9.82335838 5.34941593,9.63602928 C9.17951513,8.46861827 15.7975059,8.68863665 19.8096793,11.0815232 Z M19.6782885,14.6257001 C19.9587572,14.1680499 19.8151786,13.5679997 19.359027,13.2858866 C15.5171857,10.9147929 9.89740803,10.2475729 5.37661559,11.6251508 C4.86442958,11.7818803 4.5748943,12.3252093 4.72962032,12.8406255 C4.88538675,13.3549968 5.42744788,13.6456181 5.9406743,13.4899335 C9.89800267,12.283564 14.9986086,12.8816737 18.3435729,14.9466224 C18.7997245,15.2281385 19.3969282,15.0843951 19.6782885,14.6257001 Z M18.1552559,18.0294173 C18.3789473,17.6622225 18.2637573,17.1823316 17.897974,16.9579845 C14.6172188,14.9446819 10.5500514,14.4761353 5.80868909,15.5647338 C5.39028985,15.6604134 5.12958927,16.0782095 5.22530827,16.4974983 C5.32058149,16.9166378 5.73660245,17.1794956 6.15410988,17.0833682 C10.4867342,16.0894045 14.1656746,16.4946622 17.0886724,18.2886928 C17.4540099,18.5131891 17.9317133,18.3976572 18.1552559,18.0294173 Z M12.4470421,0 C19.3214231,0 24.8939358,5.59628864 24.8939358,12.4998507 C24.8939358,19.4038606 19.3214231,25 12.4470421,25 C5.57280989,25 0,19.4038606 0,12.4998507 C0,5.59628864 5.57280989,0 12.4470421,0 Z M33.8638799,11.5396212 C36.4821821,12.1790777 37.5499547,13.1716979 37.5499547,14.9664748 C37.5499547,17.0900851 35.9341757,18.4622894 33.4337386,18.4622894 C31.6662063,18.4622894 30.0284297,17.8314904 28.6965382,16.63751 C28.639612,16.587058 28.6333695,16.4998866 28.6827154,16.4415235 L29.8592865,15.0352865 C29.8833649,15.0061796 29.9179963,14.9885662 29.9557487,14.9854316 C29.9917178,14.9833419 30.0306594,14.9946861 30.0590481,15.0191658 C31.2036636,16.0146221 32.2269952,16.438986 33.4813011,16.438986 C34.6107558,16.438986 35.3125964,15.9481986 35.3125964,15.1587297 C35.3125964,14.4461328 34.9655406,14.0477413 32.9090676,13.5720299 C30.492905,12.985563 29.0947232,12.225798 29.0947232,10.0800963 C29.0947232,8.07918274 30.7155557,6.68070763 33.0359993,6.68070763 C34.6141745,6.68070763 35.964348,7.1504484 37.1633628,8.11664856 C37.2214777,8.16351814 37.2332197,8.24770428 37.1901164,8.30890343 L36.1407742,9.79440072 C36.118628,9.82574662 36.085483,9.84634537 36.0478792,9.85201747 C36.0102751,9.85798814 35.9720767,9.8488829 35.9416072,9.82604516 C34.9340307,9.07165375 33.9732731,8.70520521 33.004192,8.70520521 C32.004493,8.70520521 31.3320815,9.18763359 31.3320815,9.90485771 C31.3320815,10.6637271 31.7148092,11.0249513 33.8638799,11.5396212 Z M45.0221335,13.9450461 C45.0221335,12.4538767 44.0711857,11.3719953 42.7615887,11.3719953 C41.4457491,11.3719953 40.4531845,12.4777593 40.4531845,13.9450461 C40.4531845,15.4124822 41.4457491,16.518097 42.7615887,16.518097 C44.0925887,16.518097 45.0221335,15.460546 45.0221335,13.9450461 Z M43.207039,9.41108511 C45.2208547,9.41108511 47.2594917,10.9683794 47.2594917,13.9450461 C47.2594917,16.9211158 45.2208547,18.4779622 43.207039,18.4779622 C42.1235114,18.4779622 41.2343944,18.0743465 40.5011925,17.2480088 L40.5011925,20.7157614 C40.5011925,20.7938277 40.4381726,20.8574149 40.3604382,20.8574149 L38.4362476,20.8574149 C38.3585131,20.8574149 38.2956416,20.7938277 38.2956416,20.7157614 L38.2956416,9.72946992 C38.2956416,9.6514037 38.3585131,9.5878163 38.4362476,9.5878163 L40.3604382,9.5878163 C40.4381726,9.5878163 40.5011925,9.6514037 40.5011925,9.72946992 L40.5011925,10.7182093 C41.2342458,9.83977766 42.1232142,9.41108511 43.207039,9.41108511 Z M52.4850974,16.5339193 C53.8777796,16.5339193 54.8886263,15.4592026 54.8886263,13.9774369 C54.8886263,12.5005971 53.841662,11.387519 52.4532901,11.387519 C51.0696744,11.387519 50.065665,12.4631312 50.065665,13.9450461 C50.065665,15.4208411 51.1056432,16.5339193 52.4850974,16.5339193 Z M52.4850974,9.41108511 C55.0699573,9.41108511 57.0940285,11.4025948 57.0940285,13.9450461 C57.0940285,16.4960056 55.0559858,18.4948295 52.4532901,18.4948295 C49.8776454,18.4948295 47.8598166,16.5103352 47.8598166,13.9774369 C47.8598166,11.4166259 49.8916168,9.41108511 52.4850974,9.41108511 Z M62.6323559,9.5878163 C62.7100903,9.5878163 62.7726644,9.6514037 62.7726644,9.72946992 L62.7726644,11.390355 C62.7726644,11.468272 62.7100903,11.5318594 62.6323559,11.5318594 L60.514795,11.5318594 L60.514795,15.5266709 C60.514795,16.1576191 60.7903589,16.438986 61.4076279,16.438986 C61.8081912,16.438986 62.166543,16.3525608 62.5372312,16.1652317 C62.580186,16.1438866 62.6323559,16.1452301 62.6742702,16.1716502 C62.7157385,16.197324 62.7411545,16.243298 62.7411545,16.292108 L62.7411545,17.8737327 C62.7411545,17.9241848 62.7138062,17.9716513 62.6699597,17.9962803 C62.1302768,18.3036194 61.5575976,18.4467657 60.8673504,18.4467657 C59.1698236,18.4467657 58.3090956,17.5662443 58.3090956,15.829532 L58.3090956,11.5318594 L57.383861,11.5318594 C57.3062751,11.5318594 57.2437011,11.468272 57.2437011,11.390355 L57.2437011,9.72946992 C57.2437011,9.6514037 57.3062751,9.5878163 57.383861,9.5878163 L58.3090956,9.5878163 L58.3090956,7.41360471 C58.3090956,7.33553848 58.3724128,7.27210035 58.4502959,7.27210035 L60.3743377,7.27210035 C60.4520724,7.27210035 60.514795,7.33553848 60.514795,7.41360471 L60.514795,9.5878163 L62.6323559,9.5878163 Z M70.0100047,9.59632447 L73.2972998,9.59632447 C73.3557122,9.59632447 73.4081793,9.63244689 73.4286906,9.68737686 L75.676453,15.5778692 L77.7286157,9.69125777 C77.748235,9.63453662 77.80204,9.59632447 77.8619385,9.59632447 L79.8652015,9.59632447 C79.9118718,9.59632447 79.9545291,9.61946072 79.9809858,9.65767287 C80.0075908,9.6964821 80.0124957,9.74559066 79.9958488,9.78917641 L76.6574245,18.452587 C75.9649479,20.2407963 75.1795761,20.9056279 73.7586538,20.9056279 C72.999144,20.9056279 72.3844019,20.7475551 71.7035184,20.3772255 C71.6384175,20.3419987 71.6119611,20.2622907 71.6430252,20.1943745 L72.2952226,18.7573886 C72.3108288,18.7214154 72.3417443,18.6940997 72.3784566,18.6809644 C72.4156146,18.669471 72.4561911,18.6726056 72.490525,18.6915622 C72.8555654,18.8921761 73.2125796,18.9938263 73.5516093,18.9938263 C73.971049,18.9938263 74.2782713,18.8553072 74.590696,18.1589803 L71.8384763,11.5318594 L70.0418121,11.5318594 L70.0418121,18.1607715 C70.0418121,18.2388378 69.9784948,18.3022761 69.9007603,18.3022761 L67.9765697,18.3022761 C67.8989838,18.3022761 67.8362612,18.2388378 67.8362612,18.1607715 L67.8362612,11.5318594 L66.9117698,11.5318594 C66.8341839,11.5318594 66.7705692,11.468272 66.7705692,11.390355 L66.7705692,9.72096176 C66.7705692,9.64304479 66.8341839,9.57945739 66.9117698,9.57945739 L67.8362612,9.57945739 L67.8362612,9.17046798 C67.8362612,7.26986136 68.7756155,6.26470271 70.5531062,6.26470271 C71.2834841,6.26470271 71.7712945,6.38172742 72.1525357,6.49546827 C72.2121371,6.51382803 72.2519706,6.56905652 72.2519706,6.63115125 L72.2519706,8.25964559 C72.2519706,8.3050225 72.2310135,8.34786191 72.1938554,8.37458056 C72.1577378,8.4012992 72.1113646,8.40831473 72.0669237,8.3942837 C71.706045,8.27337809 71.3838108,8.19337138 70.9826529,8.19337138 C70.3099444,8.19337138 70.0100047,8.54369918 70.0100047,9.32928723 L70.0100047,9.59632447 Z M65.732969,9.5878163 C65.8105549,9.5878163 65.8738722,9.6514037 65.8738722,9.72946992 L65.8738722,18.1607715 C65.8738722,18.2388378 65.8105549,18.3022761 65.732969,18.3022761 L63.8086298,18.3022761 C63.7308953,18.3022761 63.6677267,18.2388378 63.6677267,18.1607715 L63.6677267,9.72946992 C63.6677267,9.6514037 63.7308953,9.5878163 63.8086298,9.5878163 L65.732969,9.5878163 Z M64.7805348,5.7488387 C65.5425714,5.7488387 66.1605834,6.36874128 66.1605834,7.13432763 C66.1605834,7.90021255 65.5425714,8.52071218 64.7805348,8.52071218 C64.0183498,8.52071218 63.3995946,7.90021255 63.3995946,7.13432763 C63.3995946,6.36874128 64.0183498,5.7488387 64.7805348,5.7488387 Z M81.717454,10.4265431 L81.3648987,10.4265431 L81.3648987,10.8780734 L81.717454,10.8780734 C81.8934344,10.8780734 81.9985171,10.7916482 81.9985171,10.6520844 C81.9985171,10.5052064 81.8934344,10.4265431 81.717454,10.4265431 Z M81.9460501,11.0706268 L82.3290749,11.6091793 L82.0060975,11.6091793 L81.6612711,11.1152574 L81.3648987,11.1152574 L81.3648987,11.6091793 L81.0945369,11.6091793 L81.0945369,10.1817465 L81.7284528,10.1817465 C82.0585646,10.1817465 82.2758646,10.351313 82.2758646,10.6370085 C82.2758646,10.8710579 82.1412039,11.0140549 81.9460501,11.0706268 Z M81.6458132,9.70663221 C80.9521475,9.70663221 80.4271791,10.2604098 80.4271791,10.9385262 C80.4271791,11.6161948 80.9484317,12.1626584 81.6386789,12.1626584 C82.3321962,12.1626584 82.8576104,11.6091793 82.8576104,10.9307644 C82.8576104,10.2529465 82.3360606,9.70663221 81.6458132,9.70663221 Z M81.6386789,12.2986399 C80.8770882,12.2986399 80.2844923,11.6844094 80.2844923,10.9385262 C80.2844923,10.1924937 80.8848172,9.57139702 81.6458132,9.57139702 C82.4072552,9.57139702 83,10.1854782 83,10.9307644 C83,11.6766476 82.4001209,12.2986399 81.6386789,12.2986399 Z" id="Combined-Shape"></path>
                        </g>
                    </g>
                </g>
            </g>
        </g>
    </g>
</svg>
